icons/AddTo.svg

<svg width="16" height="16" viewBox="0 0 16 16" fill="none" xmlns="http://www.w3.org/2000/svg">
<path opacity="0.5" fill-rule="evenodd" clip-rule="evenodd" d="M3 3H6.6V3.8H3.8V12.6H12.6V9.8H13.4V13.4H3V3Z" fill="#FF00FF"/>
<path fill-rule="evenodd" clip-rule="evenodd" d="M10.8 5.19999V7.19999H11.6V5.19999H13.6V4.39999H11.6V2.39999H10.8V4.39999H8.80005V5.19999H10.8Z" fill="#FF00FF"/>
</svg>

<svg width="16" height="16" fill="none" xmlns="http://www.w3.org/2000/svg"><path opacity=".5" fill-rule="evenodd" clip-rule="evenodd" d="M3 3h3.6v.8H3.8v8.8h8.8V9.8h.8v3.6H3V3z" fill="#F0F"/><path fill-rule="evenodd" clip-rule="evenodd" d="M10.8 5.2v2h.8v-2h2v-.8h-2v-2h-.8v2h-2v.8h2z" fill="#F0F"/></svg>
